svgs/duotone/computer-speaker.svg

<svg xmlns="http://www.w3.org/2000/svg" viewBox="0 0 640 512"><!--! Font Awesome Pro 6.0.0-alpha3 by @fontawesome - https://fontawesome.com License - https://fontawesome.com/license (Commercial License) --><defs><style>.fa-secondary{opacity:.4}</style></defs><path class="fa-primary" d="M480 160c19.2 0 31.1-12.8 31.1-32c0-19.2-12.8-32-31.1-32s-32 12.8-32 32C447.1 147.2 460.8 160 480 160zM480 224c-54.4 0-96 41.6-96 96s41.6 96 96 96s96-41.6 96-96S534.4 224 480 224zM480 368c-25.6 0-48-22.4-48-48s22.4-48 48-48s48 22.4 48 48S505.6 368 480 368zM64 320h224V96H63.1L64 320z"/><path class="fa-secondary" d="M592 32h-224c-25.6 0-48 22.4-48 48v352c0 25.6 22.4 48 48 48H592c25.6 0 48-22.4 48-48v-352C640 54.4 617.6 32 592 32zM480 96c19.2 0 31.1 12.8 31.1 32c0 19.2-12.8 32-31.1 32s-32-12.8-32-32C447.1 108.8 460.8 96 480 96zM480 416c-54.4 0-96-41.6-96-96s41.6-96 96-96s96 41.6 96 96S534.4 416 480 416zM288 416H128c-19.2 0-32 12.8-32 32c0 19.2 12.8 32 32 32h176C294.4 467.2 288 448 288 432V416zM0 80L0 336C0 361.6 22.4 384 48 384H288v-64H64L63.1 96H288V80C288 64 294.4 44.8 304 32h-256C22.4 32 0 54.4 0 80z"/></svg>

<svg xmlns="http://www.w3.org/2000/svg" viewBox="0 0 640 512"><!-- Font Awesome Pro 5.15.3 by @fontawesome - https://fontawesome.com License - https://fontawesome.com/license (Commercial License) --><defs><style>.fa-secondary{opacity:.4}</style></defs><path d="M64 320h224V96H64zM592 32H368a48 48 0 0 0-48 48v352a48 48 0 0 0 48 48h224a48 48 0 0 0 48-48V80a48 48 0 0 0-48-48zM480 96a32 32 0 1 1-32 32 32 32 0 0 1 32-32zm0 320a96 96 0 1 1 96-96 96 96 0 0 1-96 96z" class="fa-secondary"/><path d="M288 416H128a32 32 0 0 0 0 64h176.41A79.24 79.24 0 0 1 288 432zM0 80v256a48 48 0 0 0 48 48h240v-64H64V96h224V80a79.24 79.24 0 0 1 16.41-48H48A48 48 0 0 0 0 80zm480 80a32 32 0 1 0-32-32 32 32 0 0 0 32 32zm0 64a96 96 0 1 0 96 96 96 96 0 0 0-96-96zm0 144a48 48 0 1 1 48-48 48 48 0 0 1-48 48z" class="fa-primary"/></svg>
